src/article.svg

<svg viewBox="0 0 16 16" fill="none" xmlns="http://www.w3.org/2000/svg"><path fill-rule="evenodd" clip-rule="evenodd" d="M9 11.5V9H14L9.05 13.26C8.82896 13.4942 8.56233 13.6806 8.26653 13.8079C7.97073 13.9351 7.65201 14.0005 7.33 14H2V2H14V8H13V3H3V13H7.33C7.61238 12.9885 7.88596 12.8984 8.12 12.74L8.4 12.5C8.44855 12.4454 8.502 12.3924 8.55639 12.3385C8.77091 12.1259 9 11.8989 9 11.5ZM11.32 10H10V11.35L11.32 10ZM4 5H11V6H4V5ZM4 7H11V8H4V7ZM8 9H4V10H8V9Z" fill="#111111"/></svg>

<svg viewBox="0 0 16 16" fill="none" xmlns="http://www.w3.org/2000/svg"><path fill-rule="evenodd" clip-rule="evenodd" d="M9 11.5V9h5l-4.95 4.26a2.36 2.36 0 0 1-1.72.74H2V2h12v6h-1V3H3v10h4.33a1.52 1.52 0 0 0 .79-.26l.28-.24c.049-.055.102-.108.156-.162.215-.212.444-.44.444-.838Zm2.32-1.5H10v1.35L11.32 10ZM4 5h7v1H4V5Zm0 2h7v1H4V7Zm4 2H4v1h4V9Z" fill="#111111"/></svg>
